!!!!SEGMENT: pl-kk--kk-i-68--008_anonim--missa-dona-nobis.krn
!!!cenid: 17xx:2280
!!!COM: Anonim
!!!COM-rismID:
!!!CDT:
!!!CNT:
!!!OPR: Missa
!!!OTL: Dona nobis
!!!OMV: 008
!!!PDT:
!!!AGN: Sacred; Mass
!!!SMS-siglum: PL-Kk
!!!SMS-shelfmark: Kk.I.68
!!!SMS-shelfwork: 001-008 M
!!!SMS-variant: Baſso PL-Kk Kk.I.68:0013
!!!SMS-altvar: Baſso PL-Kk Kk.I.68:0017
!!!NIFC-rismSourceID: 1001154624
!!!NIFC-islandoraID: pl-kk:2850
!!!URL-pdf-islandora: https://repozytorium.nifc.pl/islandora/object/pl-kk%3A2850/datastream/PDF/view
!!!URL-scan: https://polish.musicsources.pl/pl/lokalizacje/galeria/rekopisy/6139 @EN{Scan on Polish Music Herritage in Open Access Website} @PL{Skany w portalu Dziedzictwo Muzyki Polskiej w otwartym dostępie}
!!!ONB-nifc: UWAGA: części Mszy: 1. Protexisti me, 2. Kyrie, 3. Alleluia, 4. Posuisti Domine, 5. Sanctus, 6. Benedictus, 7. Agnus Dei, 8. Dona nobis, 9. Deo gratias
!!!AIN: 1 empty 2 tenor
!!!key:
**kern	**text	**kern	**text	**kern	**text
*part3	*part3	*part2	*part2	*part1	*part1
*staff3	*staff3	*staff2	*staff2	*staff1	*staff1
*Iempty	*	*Itenor	*	*Itenor	*
*I"Baſso	*	*I"Tenore Secundo	*	*I"Tenore Primo	*
*I'B	*	*I'T 2	*	*I'T 1	*
*clefF4	*	*clefC4	*	*clefC4	*
*k[]	*	*k[]	*	*k[]	*
*C:	*	*C:	*	*C:	*
*M2/2	*	*M2/2	*	*M2/2	*
*met(c|)	*	*met(c|)	*	*met(c|)	*
=1	=1	=1	=1	=1	=1
*	*	*	*	*2\right	*
4C/	Do-	2.G/	Do-	2.c\	Do-
4D/	.	.	.	.	.
4E/	.	.	.	.	.
4C/	-na	4G/	-na	4c\	-na
=2	=2	=2	=2	=2	=2
*	*	*2\right	*	*	*
4G\	no-	2B\	no-	2d\	no-
4F\	.	.	.	.	.
4E\	.	2c\	-bis	2e\	-bis
4C/	-bis	.	.	.	.
=3	=3	=3	=3	=3	=3
1G	pa-	1d	pa-	1f	pa-
=4	=4	=4	=4	=4	=4
1C	-cem	1c	-cem	1e	-cem
=5	=5	=5	=5	=5	=5
2C/	Do-	2c\	do-	2e\	do-
*2\right	*	*	*	*	*
2c\	-na	4d\	.	4f\	.
.	.	4c\	-na	4e\	-na
=6	=6	=6	=6	=6	=6
2G\	no-	2B\	no-	2d\	no-
2F#X\	-bis	2A\	-bis	2c\	-bis
=7	=7	=7	=7	=7	=7
1G	pa-	2B\	pa-	2d\	pa-
.	.	2c\	.	2e\	.
!LO:LB:g=original	!	!	!	!	!
=8	=8	=8	=8	=8	=8
1G	-cem	1B	-cem	1d	-cem
!	!	!LO:LB:g=original	!	!LO:LB:g=original	!
=9	=9	=9	=9	=9	=9
4G\	Do-	4d\	do-	4f\	do-
4A\	.	4c\	.	4e\	.
4B\	.	4B\	.	4d\	.
4G\	-na	4d\	.	4f\	.
=10	=10	=10	=10	=10	=10
4c\	no-	1c	-na	1e	-na
4G\	.	.	.	.	.
4E\	.	.	.	.	.
4C/	-bis	.	.	.	.
=11	=11	=11	=11	=11	=11
1G	no-	4f\	no-	4d\	no-
.	.	4e\	.	4c\	.
.	.	4d\	.	4B\	.
.	.	4f\	.	4d\	.
=12	=12	=12	=12	=12	=12
4c\	-bis	1e	-bis	1c	-bis
4G\	.	.	.	.	.
4E\	pa-	.	.	.	.
4C/	-cem	.	.	.	.
=13	=13	=13	=13	=13	=13
2G\	Do-	2B\	do-	2d\	do-
2G\	-na	4c\	.	4e\	-na
.	.	4d\	-na	4f\	.
=14	=14	=14	=14	=14	=14
2c\	no-	2e\	no-	2g\	no-
4G\	.	4d\	.	4f\	-bis
4E\	-bis	4c\	-bis	4e\	.
!LO:LB:g=original	!	!	!	!	!
=15	=15	=15	=15	=15	=15
1G	pa-	2c\	pa-	2e\	pa-
.	.	2B\	.	2d\	.
=16	=16	=16	=16	=16	=16
1C	-cem	1c	-cem	1e	-cem
!	!	!LO:LB:g=original	!	!LO:LB:g=original	!
=17	=17	=17	=17	=17	=17
1G	Do-	4d\	do-	4f\	do-
.	.	4c\	.	4e\	.
.	.	4B\	.	4d\	.
.	.	4d\	.	4f\	.
=18	=18	=18	=18	=18	=18
4c\	.	1c	-na	1e	-na
4G\	.	.	.	.	.
4E\	.	.	.	.	.
4C/	-na	.	.	.	.
=19	=19	=19	=19	=19	=19
1G	no-	4f\	no-	4d\	no-
.	.	4e\	.	4c\	.
.	.	4d\	.	4B\	.
.	.	4f\	.	4d\	.
=20	=20	=20	=20	=20	=20
4c\	.	1e	-bis	1c	-bis
4G\	.	.	.	.	.
4E\	.	.	.	.	.
4C/	-bis	.	.	.	.
=21	=21	=21	=21	=21	=21
2G\	Do-	2B\	do-	2d\	do-
2G\	-na	4c\	-na	4e\	-na
.	.	4d\	.	4f\	.
=22	=22	=22	=22	=22	=22
2c\	no-	2e\	no-	2g\	no-
4G\	.	4d\	.	4f\	.
4E\	-bis	4c\	-bis	4e\	-bis
!LO:LB:g=original	!	!	!	!	!
=23	=23	=23	=23	=23	=23
2G\	pa-	2B\	pa-	2d\	pa-
2c\	.	2c\	.	2e\	.
=24	=24	=24	=24	=24	=24
1G	.	1B	.	1d	.
=25	=25	=25	=25	=25	=25
1C	-cem	1c	-cem	1e	-cem
!LO:LB:g=original	!	!LO:LB:g=original	!	!LO:LB:g=original	!
==	==	==	==	==	==
*-	*-	*-	*-	*-	*-
!!!system-decoration: [(s1,s2,s3)]
!!!ENC: Marta Chmielewska
!!!END: 2021-08-06
!!!ENC: Tomasz Grochalski
!!!END: 2021-07-09
